public/favicon.svg

<svg width="51" height="50" viewBox="0 0 51 50" fill="none" xmlns="http://www.w3.org/2000/svg">
<path d="M34.2135 49.9999V41.6666C38.8246 41.6666 42.5468 37.9444 42.5468 33.3333H50.8801C50.8801 42.5555 43.4079 49.9999 34.2135 49.9999Z" fill="#FFD11A"/>
<path d="M34.2135 49.9999V41.6666C29.6024 41.6666 25.8802 37.9444 25.8802 33.3333H17.5468C17.5468 42.5555 25.0191 49.9999 34.2135 49.9999Z" fill="#FFD11A"/>
<path d="M0.880188 33.3335H9.21352C9.21352 37.9446 12.9357 41.6668 17.5469 41.6668V50.0002C8.35241 50.0002 0.880188 42.5557 0.880188 33.3335Z" fill="#FFD11A"/>
<path d="M0.880188 33.3334H9.21352C9.21352 28.7223 12.9357 25.0001 17.5469 25.0001V16.6667C8.35241 16.6667 0.880188 24.139 0.880188 33.3334Z" fill="#FFD11A"/>
<path d="M17.5469 0V8.33333C12.9357 8.33333 9.21352 12.0556 9.21352 16.6667H0.880188C0.880188 7.47222 8.35241 0 17.5469 0Z" fill="#FFD11A"/>
<path d="M17.5468 0V8.33333C22.158 8.33333 25.8802 12.0556 25.8802 16.6667H34.2135C34.2135 7.47222 26.7413 0 17.5468 0Z" fill="#FFD11A"/>
<path d="M50.8802 16.6667H42.5469C42.5469 12.0556 38.8246 8.33333 34.2135 8.33333V0C43.408 0 50.8802 7.47222 50.8802 16.6667Z" fill="#FFD11A"/>
<path d="M50.8802 16.6667H42.5469C42.5469 21.2779 38.8247 25.0001 34.2136 25.0001V33.3334C43.408 33.3334 50.8802 25.889 50.8802 16.6667Z" fill="#FFD11A"/>
</svg>

<?xml version="1.0" encoding="UTF-8"?>
<svg width="51" height="50" fill="none" version="1.1" viewBox="0 0 51 50" xmlns="http://www.w3.org/2000/svg">
 <g fill="#FFD11A">
  <path d="m34.214 50v-8.3333c4.6111 0 8.3333-3.7222 8.3333-8.3333h8.3333c0 9.2222-7.4722 16.667-16.667 16.667z"/>
  <path d="m34.214 50v-8.3333c-4.6111 0-8.3333-3.7222-8.3333-8.3333h-8.3334c0 9.2222 7.4723 16.667 16.667 16.667z"/>
  <path d="m0.88019 33.334h8.3333c0 4.6111 3.7222 8.3333 8.3334 8.3333v8.3334c-9.1945 0-16.667-7.4445-16.667-16.667z"/>
  <path d="m0.88019 33.333h8.3333c0-4.6111 3.7222-8.3333 8.3334-8.3333v-8.3334c-9.1945 0-16.667 7.4723-16.667 16.667z"/>
  <path d="m17.547 0v8.3333c-4.6112 0-8.3334 3.7223-8.3334 8.3334h-8.3333c0-9.1945 7.4722-16.667 16.667-16.667z"/>
  <path d="m17.547 0v8.3333c4.6112 0 8.3334 3.7223 8.3334 8.3334h8.3333c0-9.1945-7.4722-16.667-16.667-16.667z"/>
  <path d="m50.88 16.667h-8.3333c0-4.6111-3.7223-8.3334-8.3334-8.3334v-8.3333c9.1945 0 16.667 7.4722 16.667 16.667z"/>
  <path d="m50.88 16.667h-8.3333c0 4.6112-3.7222 8.3334-8.3333 8.3334v8.3333c9.1944 0 16.667-7.4444 16.667-16.667z"/>
 </g>
</svg>
